X:1
T:Walking with Jesus
T:Walking with Jesus
T:Ira Bishop Wilson
T:Lizzie Gregg Hall, 1915
T:Public Domain Courtesy of the Cyber Hymnal™
T:Public Domain Courtesy of the Cyber Hymnal™
C:Ira Bishop Wilson
Z:Public Domain
Z:Courtesy of the Cyber Hymnal™
%%score ( 1 2 ) ( 3 4 )
L:1/8
Q:1/4=92
M:4/4
K:Bb
V:1 treble 
V:2 treble 
V:3 bass 
V:4 bass 
V:1
 [DF]2 [^C=E][DF] [B,D]2 [DF][DB] | [Fd]2 [=E^c][Fd] B4 | [GB]2 [EG][GB] [Ge]2 [GB][_Gc] | %3
w: 1.~Walk- ing with Je- sus, oh,|fel- low- ship sweet!|Walk- ing with Him hour by|
w: 2.~Walk- ing with Je- sus helps|bur- dens grow light,|Mak- ing the tri- als grow|
w: 3.~Walk- ing with Je- sus while|do- ing His will,|Wear- ing the yoke of His|
w: 4.~Walk- ing with Je- sus each|day of my life,|Walk- ing with Je- sus, my|
 [Fd]6 z2 | [Fd]2 [=E^c][Fd] [G=e]2 [Fd][FG] | [Fd]2 [Ec][EB] [EG]4 | %6
w: hour;|Talk- ing with Him, as I|work for His cause,|
w: dim;|Tell- ing Him all of my|joy and my cares,|
w: love;|Learn- ing the pa- tience that|comes from His strength,|
w: friend;|Talk- ing with Je- sus as|we jour- ney on,|
 [=EG]2 [EA][EB] [Ec]2 [EG][Ed] | (!fermata!c4 !fermata!^c4) || %8
w: Trust- ing in His might- y|power. *|
w: Cast- ing it all up- on|Him. *|
w: Gain- ing the grace from a-|bove. *|
w: Till all life’s jour- neys shall|end. *|
"^Refrain" [Dd]2 [DF][DG] [DF]2 [DB][Dc] | [EB]2 [EG][EB] [EA]4 | [CE]2 [DF][EG] [GB]2 [FA][EG] | %11
w: |||
w: Walk- ing and talk- ing with|Je- sus, my friend,|Walk- ing and talk- ing with|
w: |||
w: |||
 [DF]6 [DF][DB] | [Fd]2 [Fd][=E^c] [Fd]2 [DF][DB] | [Dc]2 [DB][DA] [DB]2 [=Ec][Ec] | %14
w: |||
w: Him; Oh what|rap- ture di- vine, oh, what|hap- pi- ness mine, As I|
w: |||
w: |||
 !>![Fd]2 !>![Fd]2 !>!!fermata![Ge]2 [Ec][Fd] | [DB]6 z2 |] %16
w: ||
w: walk and talk with my|friend.|
w: ||
w: ||
V:2
 x8 | x4 (F2 ^F2) | x8 | x8 | x8 | x8 | x8 | E8 || x8 | x8 | x8 | x8 | x8 | x8 | x8 | x8 |] %16
V:3
 [B,,B,]4 [F,,F,]4 | [B,,B,]4 [D,,D,]4 | [E,,E,]4 [E,,E,]4 | ([B,,,B,,]2 F,2 B,2 F,2) | %4
w: ~ ~|~ ~|~ ~|~ * * *|
 [=B,,=B,]4 [G,,G,]4 | [C,G,]4 [C,C]4 | [C,C]4 [C,B,]4 | !fermata!A,8 || %8
w: ~ ~|~ ~|~ ~|~|
 [B,,F,]2 [B,,B,][B,,B,] [B,,B,]2 [B,,F,][B,,F,] | [C,F,]2 [C,F,][C,F,] F,4 | %10
w: ~ ~ ~ ~ ~ ~|~ ~ ~ ~|
 [F,A,]2 [F,A,][F,A,] [F,C]2 [F,C][F,A,] | B,2 D,2 F,2 [B,,B,][B,,F,] | %12
w: ~ ~ ~ ~ ~ ~|~ ~ with Him; *|
 [B,,B,]2 [B,,B,][B,,B,] [B,,B,]2 [B,,B,][B,,F,] | [D,^F,]2 [D,F,][D,F,] G,2 [_G,B,][G,B,] | %14
w: ||
 !>![F,B,]2 !>![G,=B,]2 !>!!fermata![C,C]2 [F,A,][F,A,] | [B,,F,]6 z2 |] %16
w: ||
V:4
 x8 | x8 | x8 | x8 | x8 | x8 | x8 | F,4 F,,4 || x8 | x4 F,4 | x8 | B,,6 x2 | x8 | x4 _G,2 x2 | x8 | %15
 x8 |] %16

